assets/icon-carrot.svg

<svg
  class="icon icon-accordion icon-carrot"
  aria-hidden="true"
  focusable="false"
  xmlns="http://www.w3.org/2000/svg"
  width="20"
  height="20"
  viewBox="0 0 20 20"
>
  <path d="M13.2007 3.20077C14.0708 3.44799 14.8041 4.00582 15.3825 4.5842C16.2207 5.42236 16.6759 6.29785 16.8114 7.17238C16.9467 8.04585 16.7557 8.87096 16.3832 9.59676C15.9414 10.4576 15.1619 11.0331 14.4616 11.4873L2.62637 19.1625C2.12702 19.4863 1.46511 19.3907 1.07779 18.9388C0.737991 18.5424 0.696827 17.9706 0.976338 17.5296L8.60593 5.49145C9.01714 4.84263 9.52843 4.13083 10.278 3.67078C11.3161 3.03367 12.3083 2.9472 13.2007 3.20077ZM12.9274 4.16269C12.3101 3.98731 11.6062 4.02897 10.8011 4.52307C10.2597 4.85536 9.85026 5.39615 9.45058 6.02677L1.82098 18.0649C1.77672 18.1347 1.78324 18.2253 1.83705 18.288C1.89838 18.3596 2.0032 18.3747 2.08227 18.3235L13.9175 10.6482C14.6029 10.2038 15.1812 9.74867 15.4935 9.14018C15.7883 8.56575 15.9205 7.95335 15.8232 7.32546C15.7261 6.69861 15.393 6.00887 14.6754 5.29132C14.1567 4.77261 13.5669 4.34441 12.9274 4.16269Z" />
  <path d="M10.7668 12.8682C10.6731 12.9696 10.5149 12.9758 10.4135 12.8821L8.90763 11.49C8.80624 11.3962 8.80003 11.2381 8.89376 11.1367C8.98748 11.0353 9.14565 11.0291 9.24704 11.1228L10.7529 12.5149C10.8543 12.6086 10.8605 12.7668 10.7668 12.8682Z" />
  <path d="M11.1604 8.42439C11.0671 8.52617 10.909 8.53304 10.8072 8.43974L8.51699 6.34018C8.41521 6.24688 8.40834 6.08874 8.50164 5.98696C8.59494 5.88518 8.75309 5.87831 8.85486 5.97162L11.1451 8.07117C11.2469 8.16447 11.2538 8.32262 11.1604 8.42439Z" />
  <path d="M16.4865 3.03018C16.5841 3.12781 16.5841 3.2861 16.4865 3.38373L15.119 4.75118C15.0214 4.84881 14.8631 4.84881 14.7655 4.75118C14.6678 4.65355 14.6678 4.49526 14.7655 4.39763L16.1329 3.03018C16.2306 2.93255 16.3888 2.93255 16.4865 3.03018Z" />
  <path d="M6.24811 14.5997C6.15439 14.7011 5.99622 14.7073 5.89483 14.6135L4.38894 13.2214C4.28755 13.1277 4.28134 12.9696 4.37507 12.8682C4.46879 12.7668 4.62696 12.7606 4.72835 12.8543L6.23424 14.2464C6.33563 14.3401 6.34184 14.4983 6.24811 14.5997Z" />
  <path d="M15.1489 1.79459C14.8108 2.16669 14.515 2.42303 14.2115 2.57726C13.887 2.74215 13.5937 2.77041 13.3103 2.75961H12.4977C11.7987 2.82025 11.4452 3.45337 11.4517 3.94279L10.4518 3.95616C10.4404 3.1065 11.0471 1.86293 12.4414 1.76094L12.4596 1.75961L13.3306 1.75961L13.341 1.76004C13.5207 1.76752 13.6314 1.75035 13.7584 1.68578C13.9056 1.61101 14.1089 1.45423 14.4236 1.10571L14.4392 1.08853L14.4562 1.07286C14.8541 0.706824 15.4138 0.430762 16.0689 0.42081C16.7314 0.410747 17.4358 0.673487 18.1148 1.28675C18.4263 1.56805 18.8681 2.03401 19.0602 2.65903C19.265 3.32542 19.1621 4.09192 18.5277 4.88236L18.508 4.90683L18.4855 4.92864C18.3252 5.08386 18.2537 5.17427 18.21 5.29103C18.1643 5.41343 18.13 5.62051 18.1731 6.02839L18.2752 6.79709C18.3357 7.23357 18.1902 7.75046 17.901 8.17635C17.6019 8.61691 17.1192 9.00553 16.4551 9.13239L16.2675 8.15015C16.6341 8.08013 16.901 7.86897 17.0737 7.61466C17.2558 7.34633 17.3042 7.07418 17.2846 6.93388L17.2841 6.93035L17.1792 6.14099C17.1269 5.65202 17.1509 5.2682 17.2734 4.94068C17.3929 4.62121 17.588 4.40752 17.7662 4.23331C18.1942 3.68869 18.2017 3.26969 18.1043 2.95281C17.9928 2.59008 17.7154 2.27342 17.4446 2.0289C16.9207 1.55573 16.4531 1.41509 16.0841 1.42069C15.7158 1.42629 15.3906 1.57837 15.1489 1.79459Z" />
</svg>

<svg xmlns="http://www.w3.org/2000/svg" class="icon icon-accordion icon-carrot" viewBox="0 0 20 20"><path d="M13.2 3.2c.87.248 1.604.806 2.183 1.384.838.838 1.293 1.714 1.428 2.588.136.874-.055 1.699-.428 2.425-.442.86-1.221 1.436-1.921 1.89L2.626 19.163a1.188 1.188 0 0 1-1.65-1.633l7.63-12.04c.411-.648.922-1.36 1.672-1.82 1.038-.637 2.03-.724 2.923-.47m-.273.963c-.617-.176-1.32-.134-2.126.36-.541.332-.95.873-1.35 1.504L1.82 18.065a.188.188 0 0 0 .261.258l11.836-7.675c.685-.444 1.263-.9 1.576-1.508.294-.574.427-1.187.33-1.815-.098-.626-.431-1.316-1.149-2.034-.518-.518-1.108-.947-1.748-1.128"/><path d="M10.767 12.868a.25.25 0 0 1-.353.014L8.908 11.49a.25.25 0 0 1 .339-.367l1.506 1.392a.25.25 0 0 1 .014.353m.393-4.444a.25.25 0 0 1-.353.016l-2.29-2.1a.25.25 0 1 1 .338-.368l2.29 2.1a.25.25 0 0 1 .015.352m5.327-5.394a.25.25 0 0 1 0 .354L15.119 4.75a.25.25 0 1 1-.354-.353l1.368-1.368a.25.25 0 0 1 .354 0M6.248 14.6a.25.25 0 0 1-.353.014L4.389 13.22a.25.25 0 1 1 .34-.367l1.505 1.392a.25.25 0 0 1 .014.354"/><path d="M15.149 1.795c-.338.372-.634.628-.937.782a1.74 1.74 0 0 1-.902.183h-.812c-.7.06-1.053.693-1.046 1.183l-1 .013c-.012-.85.595-2.093 1.99-2.195l.018-.001h.881c.18.008.29-.01.417-.074.148-.075.35-.232.666-.58l.015-.017.017-.016A2.44 2.44 0 0 1 16.07.42c.662-.01 1.367.252 2.046.866.311.281.753.747.945 1.372.205.666.102 1.433-.532 2.223l-.02.025-.023.022c-.16.155-.231.245-.275.362-.046.122-.08.33-.037.737l.102.77c.06.436-.085.952-.374 1.378-.3.44-.782.83-1.446.956l-.187-.982c.366-.07.633-.281.806-.535.182-.269.23-.54.21-.681V6.93l-.105-.789c-.052-.489-.028-.873.094-1.2.12-.32.315-.533.493-.708.428-.544.436-.963.338-1.28-.111-.363-.389-.68-.66-.924-.523-.473-.99-.614-1.36-.608a1.44 1.44 0 0 0-.935.374"/></svg>
